X:1
T:Title
%%score { ( 1 4 5 ) | ( 2 3 ) }
L:1/8
M:3/4
K:F
V:1 treble nm="Grand Piano"
V:4 treble 
V:5 treble 
V:2 bass 
V:3 bass 
V:1
 z2 z2[Q:1/4=86] CC | [CFAc]2 [FAc]2 [CFA][CFA] | [FA]B [EB]2 CC | z2 z A [C^FGB][_A=B] | %4
[M:2/4] [DF_A=B]2 [CF=Ac]2 |[M:1/4] [^Fd][FA] |[M:3/4] cB B2 [EA]E | GF F2 [CF][B,D] | %8
 [A,C][CF] [=B,F]2 [B,G]2 |[M:2/4] G4 |[M:1/4] CC |[M:3/4] [CAc]2 [CAc]2 A>c | [CEB]4 z2 | %13
 [CEB]2 [CEB]2 G>B |[M:2/4] [CFA]4 |[M:1/4] FF |[M:3/4] [Fdf]2 [Fdf]2 e>d | [CAc]4 z2 | %18
 AC [EG]2 [Ec]2 |[M:2/4] [CF]4 |] %20
V:2
 z2 z2 C,C, | [F,,F,]2 [C,F,A,C]2 [F,,F,][A,,F,] | F,[G,E] [C,G,C]2 C,C, | %3
 [C,,C,]2 z [C^F] z [D=F] |[M:2/4] [F,,F,]2 [C,F,A,]2 |[M:1/4] [D,D][D,D] | %6
[M:3/4][K:treble] [G,DG]2 [G,DG]2[K:bass] [C,C][C,B,C] | [D,A,D]2 [D,A,D]2 [A,,F,][A,,F,] | %8
 [C,F,][C,A,] [G,,G,]2 [G,,F,]2 |[M:2/4] [C,E,C]4 |[M:1/4] z2 | %11
[M:3/4] [F,,,F,,]2 [C,F,A,]2[K:treble] [CF]>[CA] | [G,,,G,,]2 [C,G,]2 z2 | %13
 [C,,C,]2 [C,G,B,]2[K:treble] [CE]>[CG] |[M:2/4][K:bass] [F,,,F,,]2 [C,F,]2 |[M:1/4] z2 | %16
[M:3/4] [B,,,B,,]2 [F,B,D]2[K:treble] [Ec]>[DB] | [F,,,F,,]2 [C,F,]2 [A,,F,][B,,F,] | %18
 [C,F,C][C,A,] [C,B,]2 [C,B,]2 |[M:2/4] [F,A,]4 |] %20
V:3
 x6 | x6 | [C,C]2 z2 z2 | z2 [C,E,]2 [C,E,B,]2 |[M:2/4] x4 |[M:1/4] x2 | %6
[M:3/4][K:treble] x4[K:bass] x2 | x6 | x6 |[M:2/4] x4 |[M:1/4] x2 |[M:3/4] x4[K:treble] x2 | x6 | %13
 x4[K:treble] x2 |[M:2/4][K:bass] x4 |[M:1/4] x2 |[M:3/4] x4[K:treble] x2 | x6 | x6 |[M:2/4] x4 |] %20
V:4
 x6 | x6 | x6 | [CGB]4 z2 |[M:2/4] x4 |[M:1/4] x2 |[M:3/4] x6 | x6 | x6 |[M:2/4] x4 |[M:1/4] x2 | %11
[M:3/4] x6 | z2 B,2 CC | x6 |[M:2/4] z2 A,2 |[M:1/4] x2 |[M:3/4] x6 | z2 A,2 [CF][DG] | x6 | %19
[M:2/4] x4 |] %20
V:5
 x6 | x6 | x6 | z2 B,2 z2 |[M:2/4] x4 |[M:1/4] x2 |[M:3/4] x6 | x6 | x6 |[M:2/4] x4 |[M:1/4] x2 | %11
[M:3/4] x6 | x6 | x6 |[M:2/4] x4 |[M:1/4] x2 |[M:3/4] x6 | x6 | x6 |[M:2/4] x4 |] %20

